icons/svg/walk.svg

﻿<?xml version="1.0" encoding="utf-8"?>
<!DOCTYPE svg PUBLIC "-//W3C//DTD SVG 1.1//EN" "http://www.w3.org/Graphics/SVG/1.1/DTD/svg11.dtd">
<svg xmlns="http://www.w3.org/2000/svg" xmlns:xlink="http://www.w3.org/1999/xlink" version="1.1" baseProfile="full" width="24" height="24" viewBox="0 0 24.00 24.00" enable-background="new 0 0 24.00 24.00" xml:space="preserve">
	<path fill="#000000" fill-opacity="1" stroke-width="0.2" stroke-linejoin="round" d="M 14.1172,9.99807L 18.9992,9.99807L 18.9992,8.19806L 15.3772,8.19806L 13.3772,4.86707C 13.0812,4.36806 12.5372,4.03406 11.9152,4.03406C 11.7442,4.03406 11.5792,4.05907 11.4242,4.10607L 5.99919,5.79807L 5.99919,10.9981L 7.79919,10.9981L 7.79919,7.33106L 9.90619,6.67406L 5.99919,21.9981L 7.79919,21.9981L 10.6682,13.8901L 12.9992,16.9981L 12.9992,21.9981L 14.7992,21.9981L 14.7992,15.5921L 12.3102,11.0521L 13.0432,8.18407M 13.9992,3.79807C 14.9912,3.79807 15.7992,2.99106 15.7992,1.99907C 15.7992,1.00307 14.9912,0.198065 13.9992,0.198065C 13.0042,0.198065 12.1992,1.00307 12.1992,1.99907C 12.1992,2.99106 13.0042,3.79807 13.9992,3.79807 Z "/>
</svg>

<svg xmlns="http://www.w3.org/2000/svg" version="1.1" baseProfile="full" width="24" height="24" viewBox="0 0 24.00 24.00" xml:space="preserve"><path fill="#000" fill-opacity="1" stroke-width=".2" stroke-linejoin="round" d="M14.117 9.998H19v-1.8h-3.623l-2-3.33c-.296-.5-.84-.834-1.462-.834-.17 0-.336.025-.49.072L5.998 5.798v5.2h1.8V7.33l2.106-.656L6 21.998h1.8l2.868-8.108 2.33 3.108v5h1.8v-6.406l-2.488-4.54.733-2.868M14 3.798c.99 0 1.8-.807 1.8-1.8 0-.995-.81-1.8-1.8-1.8-.996 0-1.8.805-1.8 1.8 0 .993.804 1.8 1.8 1.8z"/></svg>
